T: After The Battle Of Aughrim
M: 2/4
L: 1/8
K: Ador
AG|:E2A2 ABcd | e2d2 {B}c2 A2 | {c}B2G2 {A}GFGA | BGAG {EF}E2D2 |\E2A2 ABcd | e2 ed e2ag | e2d2 BedB |1A4 {B}A2 AG :|2A4 {B}A2  (3(efg))||:a2ag e2 (3(efg)) | abag e2 (3(efg)) | a>baf g>age | d>edB G2  (3(efg))| a2 ag e2 (3(efg))| abag e2d2 | B2e2 d2B2 | A4 {B}A4 :|
